!!!!SEGMENT: pl-sa--79-a-ii-19--016_siwinski-andrzej--missa-pro-defunctis-sanctus.krn
!!!cenid: 17xx:308
!!!COM: Siwiński, Andrzej
!!!COM-rismID: pe41011487
!!!CDT: <1725->1725
!!!CNT:
!!!OPR: Missa pro defunctis
!!!OTL: Sanctus
!!!OMV: 016
!!!PDT: 1726
!!!AGN: Sacred; Mass
!!!SMS-siglum: PL-SA
!!!SMS-shelfmark: 79/A II 19
!!!SMS-shelfwork: 001-016 M
!!!NIFC-rismSourceID: 1001070177
!!!NIFC-islandoraID:
!!!URL-pdf-islandora:
!!!URL-scan: https://bc.bdsandomierz.pl/dlibra/publication/1356/edition/1324/content @EN{Scan in the Sandomierz Diocese Digital Library} @PL{Skany w portalu Cyfrowa Biblioteka Diecezjalna w Sandomierzu}
!!!ONB-nifc: Uwaga: części Mszy: Requiem, Kyrie, Dies Irae, Quantus tremor, Tuba mirrum, Mors, Quid sum miser, Rex tremende, Quaerens me, Iuste iudex, Oro supplex, Pie Iesu Domine, Domine Iesu Christe,Quam olim Abrahae, Hostias, Sanctus, Osanna, Benedictus, Agnus Dei
!!!AIN: 1 alto 3 empty 2 oboe 2 violn 1 vox
!!!key:
**kern	**fba	**kern	**kern	**kern	**text	**kern	**text	**kern	**text	**kern	**text	**kern	**kern
*part9	*	*part8	*part7	*part6	*part6	*part5	*part5	*part4	*part4	*part3	*part3	*part2	*part1
*	*	*group3	*group3	*group2	*	*group2	*	*group2	*	*group2	*	*group1	*group1
*staff9	*	*staff8	*staff7	*staff6	*staff6	*staff5	*staff5	*staff4	*staff4	*staff3	*staff3	*staff2	*staff1
*Iempty	*	*Ivioln	*Ivioln	*Iempty	*	*Iempty	*	*Ialto	*	*Ivox	*	*Ioboe	*Ioboe
*I"P9	*	*I"Violino. 2do	*I"Violino 1mo	*I"P6	*	*I"P5	*	*I"Alto.	*	*I"Canto.	*	*I"Hobois 2do.	*I"Hautbo. 1mo.
*I'bc	*	*I'vl 2	*I'vl 1	*I'B	*	*I'T	*	*I'A	*	*I'S	*	*I'ob 2	*I'ob 1
*clefF4	*	*clefG2	*clefG2	*clefF4	*	*clefC4	*	*clefC3	*	*clefC1	*	*clefG2	*clefG2
*k[b-e-]	*	*k[e-b-]	*k[b-e-]	*k[b-e-]	*	*k[b-e-]	*	*k[b-e-]	*	*k[b-e-]	*	*k[e-b-]	*k[b-e-]
*c:	*	*c:	*c:	*c:	*	*c:	*	*c:	*	*c:	*	*c:	*c:
*M2/2	*	*M2/2	*M2/2	*M2/2	*	*M2/2	*	*M2/2	*	*M2/2	*	*M2/2	*M2/2
*met(c|)	*	*met(c|)	*met(c|)	*met(c|)	*	*met(c|)	*	*met(c|)	*	*met(c|)	*	*met(c|)	*met(c|)
=1	=1	=1	=1	=1	=1	=1	=1	=1	=1	=1	=1	=1	=1
!LO:TX:a:t=P:problem=brak nazwy partii (na stronie tytułowej "Baſso pro Organo")	!	!	!	!LO:TX:a:t=P:problem=brak nazwy partii (na stronie tytułowej "Baſso vocali")	!	!LO:TX:a:t=P:problem=brak nazwy partii (na stronie tytułowej "Tenore")	!	!	!	!LO:TX:a:t=P:problem=bemole b- ee-	!	!	!
!LO:TX:a:t=Solo	!	!	!LO:TX:a:t=2	!LO:TX:a:t=2	!	!LO:TX:a:t=2	!	!	!	!	!	!	!
!LO:TX:b:t=Sanctus Canto.	!	!LO:TX:b:t=Sanctus	!LO:TX:b:t=Sanctus	!LO:TX:b:t=Sanct(us) c	!	!LO:TX:b:t=Sanctuſ C.	!	!LO:TX:b:t=Sanctus	!	!	!	!LO:TX:b:t=Sanctus	!LO:TX:b:t=Sanctus. Cant.
4C/	.	0r	0r	0r	.	0r	.	0r	.	8cc\L	San-	0r	0r
!	!	!	!LO:TX:b:t=Cant	!	!	!	!	!LO:TX:b:t=Canto	!	!	!	!	!
.	.	.	.	.	.	.	.	.	.	16dd\L	.	.	.
.	.	.	.	.	.	.	.	.	.	16cc\JJ	.	.	.
!	!	!	!	!	!	!	!	!	!	!LO:TX:a:t=P:problem=♮ above	!	!	!
4r	.	.	.	.	.	.	.	.	.	4bn\	.	.	.
8r	.	.	.	.	.	.	.	.	.	4cc\	-ctus	.	.
8E-\L	6	.	.	.	.	.	.	.	.	.	.	.	.
8F\	.	.	.	.	.	.	.	.	.	4r	.	.	.
8G\J	.	.	.	.	.	.	.	.	.	.	.	.	.
=2	=2	=2	=2	=2	=2	=2	=2	=2	=2	=2	=2	=2	=2
4C/	.	.	.	.	.	.	.	.	.	16ee-\LL	San-	.	.
.	.	.	.	.	.	.	.	.	.	16dd\	.	.	.
.	.	.	.	.	.	.	.	.	.	16cc\	.	.	.
.	.	.	.	.	.	.	.	.	.	16dd\JJ	.	.	.
!	!	!	!	!	!	!	!	!	!	!LO:TX:a:t=P:problem=♮ above	!	!	!
4r	.	.	.	.	.	.	.	.	.	4bn\	.	.	.
8r	.	.	.	.	.	.	.	.	.	4cc\	-ctus	.	.
8E-\L	6	.	.	.	.	.	.	.	.	.	.	.	.
8F\	.	.	.	.	.	.	.	.	.	4r	.	.	.
!	!	!	!	!	!	!	!	!	!	!LO:TX:a:t=P:problem=pojedyncza kreska taktowa	!	!	!
8G\J	.	.	.	.	.	.	.	.	.	.	.	.	.
=3||	=3||	=3||	=3||	=3||	=3||	=3||	=3||	=3||	=3||	=3||	=3||	=3||	=3||
*M3/4	*	*M3/4	*M3/4	*M3/4	*	*M3/4	*	*M3/4	*	*M3/4	*	*M3/4	*M3/4
!LO:TX:b:t=Tutti Sanctus	!	!LO:TX:b:t=Sanctus	!	!	!	!	!	!	!	!	!	!LO:TX:b:t=Sanctus	!LO:TX:b:t=Sanctus
4C/	.	4ee-\	2gg\	2c\	San-	2c\	San-	2g\	San-	2ee-\	San-	4g/	4cc\
4c\	.	4cc\	.	.	.	.	.	.	.	.	.	4cc/	4ee-\
4C/	.	4ee-\	4gg\	4c\	-ct(us)	4c\	-ctus	4g\	-ctus	4ee-\	-ctus	4g/	4cc\
=4	=4	=4	=4	=4	=4	=4	=4	=4	=4	=4	=4	=4	=4
4Bn\	6	4gg\	4dd\	4.Bn\	Do-	4.d\	Do-	4.g\	Do-	4.dd\	Do-	4g/	4dd\
!	!	!	!	!	!	!	!	!	!	!	!	!	!LO:TX:a:t=P:problem=♮ above
4G\	.	4dd\	4gg\	.	.	.	.	.	.	.	.	4g/	4bn\
.	.	.	.	[8B\	-mi-	8c\	-mi-	8g\	-mi-	8dd\	-mi-	.	.
4B\	.	4gg\	4dd\	4B\]	-n(us)	4Bn\	-n(us)	4g\	-nus	4dd\	-n(us)	4g/	4dd\
=5	=5	=5	=5	=5	=5	=5	=5	=5	=5	=5	=5	=5	=5
4c\	.	4ee-\	2ee-\	4c\	De-	2c\	De-	2g\	De-	(4ee-\	De-	4a-X/	2ee-\
4B-X\	.	4dd\	.	4B-X\	.	.	.	.	.	4dd\)	.	2a-/	.
.	7	.	.	.	.	.	.	.	.	.	.	.	.
4A-X\	#6r	4cc\	4ff#X\	4A-X\	-us	4c\	-us	4f#X\	-us	4cc\	-us	.	4ff#X\
!	!	!LO:LB:g=original	!	!	!	!	!	!	!	!	!	!	!
=6	=6	=6	=6	=6	=6	=6	=6	=6	=6	=6	=6	=6	=6
!	!	!	!	!	!	!	!	!	!	!LO:TX:a:t=P:problem=♮ above	!	!	!
2G\	.	2bn\	2.gg\	4.G\	Sa-	4.d\	Sa-	4.g\	Sa-	4.bn\	Sa-	4g/	2.gg\
!	!	!	!	!	!	!	!	!	!	!	!	!LO:TX:a:t=P:problem=♮ above	!
.	.	.	.	.	.	.	.	.	.	.	.	4bn\	.
.	.	.	.	8G\	-ba-	8d\	-ba-	8g\	-ba-	8b\	-ba-	.	.
4GG/	.	4b\	.	4G\	-otch	4d\	-oth	4g\	-oth	4b\	-oth	4b\	.
!	!	!	!	!	!	!	!	!	!	!	!	!LO:LB:g=original	!
=7	=7	=7	=7	=7	=7	=7	=7	=7	=7	=7	=7	=7	=7
4.E-\	.	2b-X\	4.gg\	4.E-\	Do-	4.B-X\	Do-	4.g\	Do-	4.ee-\	Do-	4.ee-\	4.gg\
!	!	!	!LO:TX:a:t=P:problem=♭ above	!	!	!	!	!	!	!	!	!	!LO:TX:a:t=P:problem=♭ above
8F\L	.	.	8aa-X\	8F\	-mi-	8B-\	-mi-	8g\	-mi-	8ee-\	-mi-	8ff\	8aa-X\
8G\	.	4b-\	4gg\	(8G\L	-n(us)	4B-\	-nus	4g\	-nus	4ee-\	-n(us)	4ee-\	4gg\
!	!	!	!	!LO:TX:a:t=P:problem=♭ above	!	!	!	!	!	!	!	!	!
8A-X\J	.	.	.	8A-X\J)	.	.	.	.	.	.	.	.	.
!	!	!	!	!	!	!LO:LB:g=original	!	!	!	!	!	!	!
=8	=8	=8	=8	=8	=8	=8	=8	=8	=8	=8	=8	=8	=8
8B-\L	.	4dd\	4.ff\	4.B-\	De-	2B-\	De-	2fn\	De-	2dd\	De-	4.dd\	4.ff\
8c\	.	.	.	.	.	.	.	.	.	.	.	.	.
8B-\	.	4cc\	.	.	.	.	.	.	.	.	.	.	.
8A-X\J	.	.	8ee-\	8A-X\	.	.	.	.	.	.	.	8cc\	8ee-\
4G\	.	4b-\	4dd\	4G\	-us	4B-\	-us	4g\	-us	4dd\	-us	4b-\	4dd\
!LO:LB:g=original	!	!	!	!	!	!	!	!	!	!	!	!	!
=9	=9	=9	=9	=9	=9	=9	=9	=9	=9	=9	=9	=9	=9
4A-X\	.	4cc\	4ee-\	4G-X\	Sa-	4c\	Sa-	4a-X\	Sa-	(4ee-\	Sa-	4cc\	4ee-\
4B-\	.	4dd\	4.ff\	4.B-\	.	(4.B-\	.	(4.f\	.	4.dd\)	.	4b-\	4.ff\
4BB-/	.	4dd\	.	.	.	.	.	.	.	.	.	4f/	.
.	.	.	8ff\	8B-\	-ba-	8B-\)	-ba-	8f\)	-ba-	8dd\	-ba-	.	8ff\
=10	=10	=10	=10	=10	=10	=10	=10	=10	=10	=10	=10	=10	=10
4E-\	.	4ee-\	4ff\	4E-\	-otch	4B-\	-oth	4g\	-oth	4ee-\	-oth	4g/	4ff\
!	!	!	!	!	!	!	!	!	!	!LO:LB:g=original	!	!	!
4r	.	8ee-\L	8gg\L	4r	.	4r	.	4r	.	4r	.	8ee-\L	8gg\L
!	!	!	!LO:TX:a:t=P:problem=♭ above	!	!	!	!	!	!	!	!	!	!
.	.	8ff\	8aa-X\	.	.	.	.	.	.	.	.	8ff\	8aa-X\
4r	.	8ee-\	8gg\	4r	.	4r	.	4r	.	4r	.	8ee-\	8gg\
!	!	!	!	!LO:TX:b:t=Verte Cito	!	!	!	!	!	!	!	!	!
.	.	8dd\J	8ff\J	.	.	.	.	.	.	.	.	8dd\J	8ff\J
!	!	!	!	!LO:PB:g=original	!	!	!	!LO:LB:g=original	!	!	!	!	!
=11	=11	=11	=11	=11	=11	=11	=11	=11	=11	=11	=11	=11	=11
4.C/	.	4cc\	4ee-\	4.C/	Do-	4.c\	Do-	4.g\	Do-	4.ee-\	Do-	4cc\	4ee-\
.	.	4ee-\	4gg\	.	.	.	.	.	.	.	.	4ee-\	4gg\
8D\L	.	.	.	8D/	-mi-	8c\	-mi-	8g\	-mi-	8ee-\	-mi-	.	.
8E-\	.	4ee-\	4gg\	(8E-\L	-n(us)	4c\	-n(us)	4g\	-nus	4ee-\	-nus	4ee-\	4gg\
8F\J	.	.	.	8F\J)	.	.	.	.	.	.	.	.	.
!	!	!	!LO:LB:g=original	!	!	!	!	!	!	!	!	!	!
=12	=12	=12	=12	=12	=12	=12	=12	=12	=12	=12	=12	=12	=12
8G\L	.	4bn\	4.dd\	4.G\	De-	(4.Bn\	De-	2g\	De-	2dd\	De-	4.gg\	4.dd\
8A-X\	.	.	.	.	.	.	.	.	.	.	.	.	.
8G\	.	4b\	.	.	.	.	.	.	.	.	.	.	.
8F\J	.	.	8dd\	8F\	.	8A\)	.	.	.	.	.	8ff\	8dd\
4E-\	.	4ee-\	4gg\	4E-\	-us	4G/	-us	4g\	-us	4ee-\	-us	4ee-\	4gg\
!	!	!	!	!	!	!	!	!	!	!	!	!	!LO:LB:g=original
=13	=13	=13	=13	=13	=13	=13	=13	=13	=13	=13	=13	=13	=13
4F\	.	4cc\	4aa-X\	4F\	Sa-	8f\L	Sa-	(4a-X\	Sa-	(4cc\	Sa-	4cc\	4aa-X\
.	.	.	.	.	.	(8e-\J	.	.	.	.	.	.	.
!	!	!LO:TX:a:t=P:problem=♮ above	!	!	!	!	!	!	!	!LO:TX:a:t=P:problem=♮ above	!	!	!
4G\	.	4bn\	4.gg\	4.G\	-ba-	4.d\)	.	4.g\)	.	4.bn\)	.	4.g/	4.ddt\
4GG/	.	4b\	.	.	.	.	.	.	.	.	.	.	.
!	!	!	!	!LO:TX:a:t=P:problem=podwójna kreska taktowa	!	!LO:TX:a:t=P:problem=podwójna kreska taktowa	!	!	!	!	!	!LO:TX:a:t=P:problem=podwójna kreska taktowa	!
.	.	.	8gg\	8G\	-o-	8c\	-ba-	(8g\	-ba-	8b\	-ba oth	8f/	[<8cc\
=14-	=14	=14	=14	=14	=14	=14	=14	=14	=14	=14-	=14	=14	=14
*M2/2	*	*M2/2	*M2/2	*M2/2	*	*M2/2	*	*M2/2	*	*M2/2	*	*M2/2	*M2/2
*met(c|)	*	*met(c|)	*met(c|)	*met(c|)	*	*met(c|)	*	*met(c|)	*	*met(c|)	*	*met(c|)	*met(c|)
!LO:TX:b:t=Pleni Sunt caeli	!	!LO:TX:b:t=Pleni ſunt celi	!LO:TX:b:t=PleniSunt celi	!	!	!	!	!	!	!	!	!LO:TX:b:t=Pleni Sunt Celi	!LO:TX:b:t=Pleni Sunt Coeli
8C/L	.	8cc\	8gg\	8C/	-th	8c\	-oth	8g,\)	-oth	8cc,\	.	8e-/	8cc\]
8C/	.	8r	8r	8c\	Ple-	8c\	Pleni	8g\	Ple-	8ee-\	ple-	8r	8r
8C/	.	4r	4r	8c\	-ni	8e-\	.	8g\	-ni	8ee-\	-ni	4r	4r
8C/J	.	.	.	8c\	ſunt	8c\	sunt	8g\	sunt	8ee-\	sunt	.	.
8BBn/L	6	2rg	2rg	8Bn\L	Coe-	(8Bn\L	Coe-	4g\	Coe-	(8dd\L	Coe-	2rg	2rg
8AA/	.	.	.	8A\J	.	8c\J)	.	.	.	8cc\J)	.	.	.
8BB/	.	.	.	8B\	-li	8d\	-li	8g\	-li	8dd\	-li	.	.
8GG/J	.	.	.	8G\	et	8B\	et	8g\	et	8dd\	et	.	.
!	!	!	!	!	!	!LO:LB:g=original	!	!	!	!	!	!	!
=15	=15	=15	=15	=15	=15	=15	=15	=15	=15	=15	=15	=15	=15
!LO:TX:a:t=P:problem=mixed beam	!	!	!	!	!	!	!	!	!	!	!	!	!
8C/L	.	8rg	8r	8c\	ter-	8c\	ter-	8g\	ter-	8ee-\	ter-	8r	8r
8c\	.	8cc\L	8gg\L	8C/	-ra	8c\	-ra	8g\	-ra	8ee-\	-ra	8cc\L	8ee-\L
8c\	.	8ee-\	8gg\	4r	.	4r	.	4r	.	4r	.	8cc\	8ee-\
8c\J	.	8cc\J	8gg\J	.	.	.	.	.	.	.	.	8cc\J	8ee-\J
8Bn\L	6	4dd\	4gg\	2rC	.	2r	.	2r	.	2r	.	4g/	4dd\
8A\	.	.	.	.	.	.	.	.	.	.	.	.	.
!	!	!	!	!	!	!	!	!	!	!	!	!LO:TX:a:t=P:problem=♮ above	!
8B\	.	8bn\L	8gg\L	.	.	.	.	.	.	.	.	8bn\L	8dd\L
8G\J	.	8dd\J	8gg\J	.	.	.	.	.	.	.	.	8b\J	8dd\J
!	!	!LO:LB:g=original	!	!	!	!	!	!	!	!	!	!LO:LB:g=original	!
=16	=16	=16	=16	=16	=16	=16	=16	=16	=16	=16	=16	=16	=16
!LO:TX:a:t=P:problem=mixed beam	!	!	!	!	!	!	!	!	!	!	!	!	!
8c\L	.	8cc\L	8gg\L	8r	.	8r	.	8r	.	8r	.	8cc\L	8ee-\L
*	*	*	*	*	*ij	*	*ij	*	*	*	*	*	*
8C/	.	8cc\	8gg\	8c\	Ple-	8c\	Ple-	8g\	Pleni	8ee-\	pleni	8cc\	8ee-\
8C/	.	8ee-\	8gg\	8c\	-ni	8e-\	-ni	8g\	.	8ee-\	.	8cc\	8ee-\
8C/J	.	8cc\J	8gg\J	8c\	ſunt	8c\	sunt	8g\	sunt	8ee-\	sunt	8cc\J	8ee-\J
8BBn/L	6	4dd\	4gg\	8Bn\L	Coe-	(8Bn\L	Coe-	4g\	Coe-	(8dd\L	Coe-	4g/	4dd\
8AA/	.	.	.	(8A\J	.	8c\J)	.	.	.	8cc\J)	.	.	.
!	!	!LO:TX:a:t=P:problem=♮ above	!	!	!	!	!	!	!	!	!	!	!
8BB/	.	8bn\L	8dd\L	8B\)	-li	8d\	-li	8g\	-li	8dd\	-li	8bn\L	8dd\L
!	!	!	!	!LO:LB:g=original	!	!	!	!	!	!	!	!	!
8GG/J	.	8dd\J	8gg\J	8G\	et	8B\	et	8g\	et	8dd\	et	8b\J	8dd\J
!LO:LB:g=original	!	!	!	!	!	!	!	!LO:PB:g=original	!	!	!	!	!
=17	=17	=17	=17	=17	=17	=17	=17	=17	=17	=17	=17	=17	=17
4C/	.	8ee-\L	8gg\L	8c\	ter-	8c\	ter-	8g\	ter-	8ee-\	ter-	8cc\L	8ee-\L
.	.	8ee-\	8gg\J	8C/	-ra	8c\	-ra	8g\	-ra	8ee-\	-ra	8cc\J	8ee-\J
*	*	*	*	*	*Xij	*	*Xij	*	*	*	*	*	*
8r	.	8r	8r	8r	.	8r	.	8r	.	8r	.	8r	8r
8E-\	6	8cc\J	8gg\	8E-\	Coe-	8c\	Coe-	8g\	Coe-	8ee-\	Coe-	8ee-\	8gg\
!LO:TX:a:t=P:problem=mixed beam	!	!	!	!	!	!	!	!	!	!	!	!	!
8F\L	.	8cc\L	8aa-X\L	8F\	-li	8c\	-li	8a-X\	-li	8cc\	-li	16ff\LL	16aa-X\LL
.	.	.	.	.	.	.	.	.	.	.	.	16ee-\	16gg\
8D\	.	8dd\	8aa-\J	8C/	et	8d\	et	8a-\	et	8dd\	et	16dd\	16ff\
.	.	.	.	.	.	.	.	.	.	.	.	16cc\JJ	16ee-\JJ
!	!	!LO:SIC:v:s=8bn	!	!	!	!	!	!	!	!LO:TX:a:t=P:problem=♮ above	!	!	!
8G\	.	8b-\	8gg\L	4G\	ter-	4d\	ter-	4g\	ter-	4bn\	ter-	8.g/L	8.dd\L
!	!	!LO:TX:a:t=P:problem=♮ above	!	!	!	!	!	!	!	!	!	!	!
8GG/J	4	8bn\J	8dd\J	.	.	.	.	.	.	.	.	.	.
.	3	.	.	.	.	.	.	.	.	.	.	16f/Jk	16cc\Jk
=18	=18	=18	=18	=18	=18	=18	=18	=18	=18	=18	=18	=18	=18
!	!	!	!	!	!	!	!	!	!	!	!	!LO:TX:a:t=P:problem=mixed beam	!
8C/L	.	4cc\	4ee-\	4C/	-ra	4e-\	-ra	4g\	-ra	4cc\	-ra	8e-/L	8cc\L
8D/	.	.	.	.	.	.	.	.	.	.	.	8ee-\	8gg\
!	!	!	!	!	!	!	!	!	!	!LO:LB:g=original	!	!	!
8E-/	.	4r	4r	4r	.	4r	.	4r	.	4r	.	8ee-\	8gg\
8C/J	.	.	.	.	.	.	.	.	.	.	.	8ee-\J	8gg\J
8D\L	.	2rg	2rg	2rC	.	2r	.	2r	.	2rf	.	16dd\LL	16ff\LL
.	.	.	.	.	.	.	.	.	.	.	.	16ee-\	16gg\
16E-\L	.	.	.	.	.	.	.	.	.	.	.	16cc\	16ee-\
16F\JJ	.	.	.	.	.	.	.	.	.	.	.	16dd\JJ	16ff\JJ
!LO:TX:a:t=P:problem=mixed beam	!	!	!	!	!	!	!	!	!	!	!	!	!
8G\L	.	.	.	.	.	.	.	.	.	.	.	8.g/L	8.dd\L
8GG/J	4	.	.	.	.	.	.	.	.	.	.	.	.
.	3	.	.	.	.	.	.	.	.	.	.	16f/Jk	16cc\Jk
=19	=19	=19	=19	=19	=19	=19	=19	=19-	=19	=19-	=19	=19	=19
!	!	!	!	!	!	!	!	!	!	!LO:TX:a:t=1.	!	!	!
8C/L	.	8r	8r	1r	.	1r	.	1r	.	1r	.	4e-/	4cc\
16GG/L	.	8b-X\L	8dd\L	.	.	.	.	.	.	.	.	.	.
16AA/J	.	.	.	.	.	.	.	.	.	.	.	.	.
8BB-/	.	8b-\	8dd\	.	.	.	.	.	.	.	.	4r	4r
8GG/J	.	8b-\J	8dd\J	.	.	.	.	.	.	.	.	.	.
8AA/L	.	16a/LL	16cc\LL	.	.	.	.	.	.	.	.	2rg	2rg
.	.	16b-/	16dd\	.	.	.	.	.	.	.	.	.	.
16BB-/L	.	16g/	16b-\	.	.	.	.	.	.	.	.	.	.
16C/JJ	.	16a/JJ	16cc\JJ	.	.	.	.	.	.	.	.	.	.
8D/L	.	8f#X/L	4a/	.	.	.	.	.	.	.	.	.	.
8DD/J	.	8f#/J	.	.	.	.	.	.	.	.	.	.	.
=20	=20	=20	=20	=20-	=20	=20-	=20	=20	=20	=20	=20	=20	=20-
!	!	!	!	!	!	!	!	!	!	!	!	!	!LO:TX:a:t=6
4GG/	.	4g/	4g/	2r	.	2r	.	2r	.	16dd\LL	glo-	00r	00r
.	.	.	.	.	.	.	.	.	.	16cc\	.	.	.
.	.	.	.	.	.	.	.	.	.	16dd\	.	.	.
.	.	.	.	.	.	.	.	.	.	16ee-\JJ	.	.	.
8r	.	4r	4r	.	.	.	.	.	.	16dd\LL	.	.	.
.	.	.	.	.	.	.	.	.	.	16ee-\	.	.	.
8F#X\	6	.	.	.	.	.	.	.	.	16dd\	.	.	.
.	.	.	.	.	.	.	.	.	.	16cc\JJ	.	.	.
!	!	!	!LO:LB:g=original	!	!	!	!	!	!	!	!	!	!
16G\LL	.	4b-\	4dd\	16G\LL	glo-	16B-\LL	glo-	8.d\	glo-	8.b-\	.	.	.
16F#X\	.	.	.	16F\	.	16A\	.	.	.	.	.	.	.
16G\	.	.	.	16G\	.	16B-\	.	.	.	.	.	.	.
!	!	!	!	!LO:TX:a:t=P:problem=♭ above	!	!	!	!	!	!	!	!	!
16A-X\JJ	.	.	.	16A-X\JJ	.	16c\JJ	.	16d\	-ri-	16a\	-ri-	.	.
16G\LL	.	8r	8r	16G\LL	.	16B-\LL	.	4d\	-a	4g/	-a	.	.
16A-X\	.	.	.	16A-\	.	16c\	.	.	.	.	.	.	.
!	!	!	!	!LO:TX:a:t=P:problem=♭ above	!	!	!	!	!	!	!	!	!
16G\	.	8b-\	8dd\	16G-\	.	16d\	.	.	.	.	.	.	.
16F#\JJ	.	.	.	16F\JJ	.	16B-\JJ	.	.	.	.	.	.	.
!	!	!	!	!	!	!LO:PB:g=original	!	!	!	!	!	!	!
=21	=21	=21	=21	=21	=21	=21	=21	=21	=21	=21	=21	=21	=21
*	*	*	*	*	*	*	*	*	*ij	*	*ij	*	*
16E-\LL	6	4ee-\	4gg\	8.E-\	.	8.e-\	.	8.g\	glo-	16cc\LL	glo-	.	.
16F\	.	.	.	.	.	.	.	.	.	16b-\	.	.	.
16E-\	.	.	.	.	.	.	.	.	.	16cc\	.	.	.
16D\JJ	.	.	.	16D\	-ri-	16e-\	-ri-	16g\	-ri-	16dd\JJ	.	.	.
16C/LL	.	8r	8r	4C/	-a	4e-\	-a	4g\	-a	16cc\LL	.	.	.
16D/	.	.	.	.	.	.	.	.	.	16dd\	.	.	.
16E-'/	.	8ee-\	8gg\	.	.	.	.	.	.	16cc\	.	.	.
16C/JJ	.	.	.	.	.	.	.	.	.	16b-\JJ	.	.	.
!	!	!	!	!	!	!LO:TX:a:t=a	!	!	!	!	!	!	!
16F\LL	.	4cc\	4aa\	16F\LL	glo-	16c\LL	glo-	8.f\	glo-	8.a\	.	.	.
!	!	!	!	!	!	!LO:TX:a:t=g	!	!	!	!	!	!	!
16E-\	.	.	.	16E-\	.	16B-\	.	.	.	.	.	.	.
!	!	!	!	!	!	!LO:TX:a:t=a	!	!	!	!	!	!	!
16F\	.	.	.	16F\	.	16c\	.	.	.	.	.	.	.
16G\JJ	.	.	.	16G\JJ	.	16d\JJ	.	16f\	-ri-	16g/	-ri-	.	.
!LO:LB:g=original	!	!	!	!LO:TX:b:t=P:problem=wykreślony tekst "ri"	!	!	!	!	!	!	!	!	!
16F\LL	.	8r	8r	16F\LL	.	16A\LL	.	4f\	-a	4f/	-a	.	.
*	*	*	*	*	*	*	*	*	*Xij	*	*Xij	*	*
16G\	.	.	.	16G\	.	16B-\	.	.	.	.	.	.	.
16F\	.	8cc\	8aa\	16F\	.	16c\	.	.	.	.	.	.	.
16E-\JJ	.	.	.	16E-\JJ	.	16A\JJ	.	.	.	.	.	.	.
=22	=22	=22	=22	=22	=22	=22	=22	=22	=22	=22	=22	=22	=22
8D/L	6	8ff\L	8bb-\L	8D/	.	8B-\	.	8f\	glo-	8b-\	glo-	.	.
16C/L	.	8ff\	8bb-\J	16C/	-ri-	16c\	-ri-	16g\	-ria	16ee-\	-ri-	.	.
16BB-/JJ	.	.	.	16BB-/	-a	16B-\	-a	16f\	.	16dd\	-a	.	.
!LO:TX:a:t=P:problem=mixed beam	!	!	!	!	!	!	!	!	!	!	!	!	!
8F\L	4	8ff\	16aa\LL	4F\	tu-	4A\	tu-	4f\	tu-	4cc\	tu-	.	.
.	3	.	16bb-\	.	.	.	.	.	.	.	.	.	.
8FF/J	.	8cc\J	16ccc\	.	.	.	.	.	.	.	.	.	.
.	.	.	16aa\JJ	.	.	.	.	.	.	.	.	.	.
!LO:TX:a:t=P:problem=mixed beam	!	!LO:LB:g=original	!	!	!	!	!	!	!	!	!	!	!
8BB-/L	.	4dd\	4bb-\	4BB-/	-a	4B-\	-a	4f\	-a	4b-\	-a	.	.
16d\L	.	.	.	.	.	.	.	.	.	.	.	.	.
16c\JJ	.	.	.	.	.	.	.	.	.	.	.	.	.
16B-\LL	.	4r	4r	4r	.	4r	.	4r	.	4r	.	.	.
16c\	.	.	.	.	.	.	.	.	.	.	.	.	.
16B-\	.	.	.	.	.	.	.	.	.	.	.	.	.
16A\JJ	.	.	.	.	.	.	.	.	.	.	.	.	.
!	!	!	!	!LO:LB:g=original	!	!	!	!	!	!	!	!	!
=23	=23	=23	=23	=23	=23	=23	=23	=23	=23	=23	=23	=23	=23
4G\	.	2rg	2r	2r	.	2r	.	2r	.	16dd\LL	glo-	.	.
.	.	.	.	.	.	.	.	.	.	16cc\	.	.	.
.	.	.	.	.	.	.	.	.	.	16dd\	.	.	.
.	.	.	.	.	.	.	.	.	.	16ee-\JJ	.	.	.
8r	.	.	.	.	.	.	.	.	.	16dd\LL	.	.	.
.	.	.	.	.	.	.	.	.	.	16ee-\	.	.	.
8F#X\	6	.	.	.	.	.	.	.	.	16dd\	.	.	.
.	.	.	.	.	.	.	.	.	.	16cc\JJ	.	.	.
16G\LL	.	4b-\	4dd\	16G\LL	glo-	16B-\LL	glo-	8.d\	glo-	8.b-\	.	.	.
16F#X\	.	.	.	16F\	.	16A\	.	.	.	.	.	.	.
16G\	.	.	.	16G\	.	16B-\	.	.	.	.	.	.	.
16A-X\JJ	.	.	.	16A\JJ	.	16c\JJ	.	16d\	-ri-	16a\	-ri-	.	.
16G\LL	.	8r	8r	16G\LL	.	16B-\LL	.	4d\	-a	4g/	-a	.	.
16A-X\	.	.	.	16A-X\	.	16c\	.	.	.	.	.	.	.
16G\	.	8b-\	8dd\	16G\	.	16d\	.	.	.	.	.	.	.
16F#\JJ	.	.	.	16F\JJ	.	16B-\JJ	.	.	.	.	.	.	.
=24	=24	=24	=24	=24	=24	=24	=24	=24	=24	=24	=24	=24	=24
*	*	*	*	*	*	*	*	*	*ij	*	*ij	*	*
16E-\LL	.	4ee-\	4gg\	8.E-\	.	8.e-\	.	8.g\	glo-	16cc\LL	glo-	0r	0r
16F\	.	.	.	.	.	.	.	.	.	16b-\	.	.	.
16E-\	.	.	.	.	.	.	.	.	.	16cc\	.	.	.
16D\JJ	.	.	.	16D\	-ri-	16e-\	-ri-	16g\	-ri-	16dd\JJ	.	.	.
16C/LL	.	8r	8r	4C/	-a	4e-\	-a	4g\	-a	16cc\LL	.	.	.
*	*	*	*	*	*	*	*	*	*Xij	*	*	*	*
16D/	.	.	.	.	.	.	.	.	.	16dd\	.	.	.
16E-/	.	8ee-\	8gg\	.	.	.	.	.	.	16cc\	.	.	.
16C/JJ	.	.	.	.	.	.	.	.	.	16b-\JJ	.	.	.
8D\L	.	4ff#X\	8aa\L	8D\L	glo-	2dt\	glo-	8f#X\L	glo-	8.a\	.	.	.
8En\	.	.	8gg\	8En\	.	.	.	8e#\J	.	.	.	.	.
.	.	.	.	.	.	.	.	.	.	16a\	-ri-	.	.
!	!	!	!	!LO:TX:a:t=P:problem=# above	!	!	!	!LO:LB:g=original	!	!	!	!	!
8F#X\	6	8r	8aa\	8F#X\	.	.	.	(8d\L	.	4a\	-a	.	.
*	*	*	*	*	*	*	*	*	*	*	*Xij	*	*
8D\J	.	8dd\	8ff#X\J	8D\J	.	.	.	8f#X\J)	.	.	.	.	.
!	!	!	!	!	!	!	!	!	!	!LO:LB:g=original	!	!	!
=25	=25	=25	=25	=25	=25	=25	=25	=25	=25	=25	=25	=25	=25
!LO:TX:a:t=P:problem=mixed beam	!	!	!	!	!	!	!	!	!	!	!	!	!
8G\L	.	8gg\L	8bb-\L	8G\	.	16c\	ri-	8g\	.	8dd\	glo-	.	.
.	.	.	.	.	.	16B-\	-a	.	.	.	.	.	.
16BB-/L	.	16dd\L	8gg\	16BB-/	-ri-	4A\	tu-	16g\	-ri-	16dd\	-ri-	.	.
16C/JJ	.	16ee-\JJ	.	16C/	-a	.	.	16g\	-a	16ee-\	-a	.	.
!LO:TX:a:t=P:problem=mixed beam	!	!	!	!	!	!	!	!	!	!	!	!	!
8D\L	.	8a/L	8.ff#X\	4D\	tu-	.	.	4f#X\	tu-	4a\	tu-	.	.
8DD/J	.	8a/J	.	.	.	4B-\	-a	.	.	.	.	.	.
.	.	.	16ff#\Jk	.	.	.	.	.	.	.	.	.	.
8GG/L	.	8b-/L	8gg\L	4GG/	-a	.	.	4g\	-a	4g\	-a	.	.
8AA/	.	8b-/	8dd\	.	.	8ryy	.	.	.	.	.	.	.
8BB-/	.	8b-/	8dd\	4r	.	4r	.	4r	.	4r	.	.	.
8GG/J	.	8b-/J	8dd\J	.	.	.	.	.	.	.	.	.	.
!LO:LB:g=original	!	!	!	!	!	!LO:LB:g=original	!	!	!	!	!	!	!LO:LB:g=original
=26	=26	=26	=26	=26	=26	=26	=26	=26	=26	=26	=26	=26	=26
8AA/L	.	16a/LL	16cc\LL	0r	.	0r	.	0r	.	1r	.	2rg	2r
.	.	16b-/	16dd\	.	.	.	.	.	.	.	.	.	.
16BB-/L	.	16g/	16b-\	.	.	.	.	.	.	.	.	.	.
16C/JJ	.	16a/JJ	16cc\JJ	.	.	.	.	.	.	.	.	.	.
!LO:TX:a:t=P:problem=mixed beam	!	!	!	!	!	!	!	!	!	!	!	!	!
8D\L	4	8f#X/L	8.a/L	.	.	.	.	.	.	.	.	.	.
8DD/J	3	8f#/J	.	.	.	.	.	.	.	.	.	.	.
.	.	.	16g/Jk	.	.	.	.	.	.	.	.	.	.
8GG/L	.	4g/	4g/	.	.	.	.	.	.	.	.	8r	8r
16C/L	.	.	.	.	.	.	.	.	.	.	.	8ee-\L	8gg\L
16D/J	.	.	.	.	.	.	.	.	.	.	.	.	.
8E-/	.	4r	4r	.	.	.	.	.	.	.	.	8ee-\	8gg\
8C/J	.	.	.	.	.	.	.	.	.	.	.	8ee-\J	8gg\J
=27	=27	=27	=27	=27	=27	=27	=27	=27	=27	=27-	=27	=27	=27
!	!	!	!LO:TX:a:t=1.	!	!	!	!	!	!	!	!	!	!
8D\L	.	1r	1r	.	.	.	.	.	.	2r	.	16dd\LL	16ff\LL
.	.	.	.	.	.	.	.	.	.	.	.	16ee-\	16gg\
16E-\L	.	.	.	.	.	.	.	.	.	.	.	16cc\	16ee-\
16F\JJ	.	.	.	.	.	.	.	.	.	.	.	16dd\JJ	16ff\JJ
!LO:TX:a:t=P:problem=mixed beam	!	!	!	!	!	!	!	!	!	!	!	!	!
8G\L	.	.	.	.	.	.	.	.	.	.	.	8.g/L	8.dd\L
8GG/J	.	.	.	.	.	.	.	.	.	.	.	.	.
.	.	.	.	.	.	.	.	.	.	.	.	16f/Jk	16cc\Jk
4C/	.	.	.	.	.	.	.	.	.	16gg\LL	glo-	4e-/	4cc\
.	.	.	.	.	.	.	.	.	.	16ff\	.	.	.
.	.	.	.	.	.	.	.	.	.	16gg\	.	.	.
.	.	.	.	.	.	.	.	.	.	16aa-X\JJ	.	.	.
8r	.	.	.	.	.	.	.	.	.	16gg\LL	.	4r	4r
.	.	.	.	.	.	.	.	.	.	16aa-X\	.	.	.
8Bn\	6	.	.	.	.	.	.	.	.	16gg\	.	.	.
.	.	.	.	.	.	.	.	.	.	16ff\JJ	.	.	.
!	!	!	!LO:LB:g=original	!	!	!	!	!	!	!	!	!LO:LB:g=original	!
=28	=28	=28-	=28	=28-	=28	=28-	=28	=28	=28	=28	=28	=28	=28
16c\LL	.	4ee-\	4gg\	16c\LL	glo-	2r	.	8.g\	glo-	8.ee-\	.	4ee-\	4gg\
16Bn\	.	.	.	16B-\	.	.	.	.	.	.	.	.	.
16c\	.	.	.	16c\	.	.	.	.	.	.	.	.	.
16d-X\JJ	.	.	.	16d\JJ	.	.	.	16g\	-ria	16dd\	-ri-	.	.
16c\LL	.	8r	8r	16c\LL	.	.	.	4g\	.	4cc\	-a	8r	8r
16d-X\	.	.	.	16d\	.	.	.	.	.	.	.	.	.
16c\	.	8ee-\	8gg\	16c\	.	.	.	.	.	.	.	8ee-\	8gg\
16B-X\JJ	.	.	.	16B-\JJ	.	.	.	.	.	.	.	.	.
!	!	!	!LO:TX:a:t=P:problem=♭ above	!	!	!	!	!	!	!	!	!	!
*	*	*	*	*	*	*	*	*	*ij	*	*ij	*	*
16A-X\LL	6	4cc\	4aa-X\	8.A-X\	.	16c\LL	glo-	8.a-X\	glo-	16ff\LL	glo-	4a-X/	4cc/
16B-\	.	.	.	.	.	16Bn\	.	.	.	16ee-\	.	.	.
16A-\	6	.	.	.	.	16c\	.	.	.	16ff\	.	.	.
16G\JJ	.	.	.	16G\	-ri-	16d\JJ	.	16a-\	-ri-	16gg\JJ	.	.	.
16F\LL	.	8r	8r	4F\	-a	16c\LL	.	4a-\	-a	16ff\LL	.	8r	8r
16G\	.	.	.	.	.	16d\	.	.	.	16gg\	.	.	.
!	!	!	!LO:TX:a:t=P:problem=♭ above	!	!	!	!	!	!	!	!	!	!
16A-X\	.	8cc\	8aa-X\	.	.	16c\	.	.	.	16ff\	.	8a-/	8cc\
16F\JJ	.	.	.	.	.	16B\JJ	.	.	.	16ee-\JJ	.	.	.
=29	=29	=29	=29	=29	=29	=29	=29	=29	=29	=29	=29	=29	=29
*	*	*	*	*	*ij	*	*	*	*	*	*	*	*
16B-\LL	.	4dd\	4ff\	16B-\LL	glo-	8.f\	.	8.f\	glo-	8.dd\	.	4dd\	4ff\
16A-X\	.	.	.	16A-X\	.	.	.	.	.	.	.	.	.
16B-\	.	.	.	16B-\	.	.	.	.	.	.	.	.	.
16c\JJ	.	.	.	16c\JJ	.	16B-\	-ri-	16f\	-ri-	16cc\	-ri-	.	.
16B-\LL	.	8r	8r	16B-\LL	.	4B-\	-a	4f\	-a	4b-\	-a	8r	8r
*	*	*	*	*	*	*	*	*	*	*	*Xij	*	*
16c\	.	.	.	16c\	.	.	.	.	.	.	.	.	.
16B-\	.	8dd\	8ff\	16B-\	.	.	.	.	.	.	.	8dd\	8ff\
16A-X\JJ	.	.	.	16A-\JJ	.	.	.	.	.	.	.	.	.
!	!	!	!	!	!	!	!	!	!	!	!	!	!LO:TX:a:t=P:problem=mixed beam
*	*	*	*	*	*	*	*ij	*	*	*	*	*	*
8G\L	6	8ee-\L	8gg\L	8G\	.	8B-\	glo-	8g\	glo-	8ee-\	glo-	8gg\L	8b-/L
!	!	!	!LO:TX:a:t=P:problem=♭ above	!	!	!	!	!	!	!	!	!	!
16F\L	.	8ee-\	16aa-X\L	16F\	-ri-	16A\	-ri-	16g\	-ri-	16ee-\	-ri-	8ee-\J	8gg\
16E-\JJ	.	.	16gg\JJ	16E-\	-a	16A\	-a	16g\	-a	16ee-\	-a	.	.
*	*	*	*	*	*Xij	*	*Xij	*	*Xij	*	*	*	*
!	!	!	!	!LO:LB:g=original	!	!	!	!	!	!	!	!	!
!LO:TX:a:t=P:problem=mixed beam	!	!	!	!LO:TX:a:t=P:problem=mixed beam	!	!	!	!	!	!	!	!	!
8B-\L	.	8dd\	8ff\L	8B-\L	tu-	4B-\	tu-	4f\	tu-	4dd\	tu-	8.b-\L	8.ff\
8BB-/J	4	8dd\J	8bb-\J	8BB-/J	.	.	.	.	.	.	.	.	.
.	3	.	.	.	.	.	.	.	.	.	.	16b-\Jk	16ee-\Jk
!LO:LB:g=original	!	!LO:LB:g=original	!	!	!	!	!	!	!	!	!	!	!
=30	=30	=30	=30	=30	=30	=30	=30	=30	=30	=30	=30	=30	=30
8E-\L	.	4ee-\	4gg\	4E-\	-a	4B-\	-a	4g\	-a	4ee-\	-a	4b-\	4ee-\
16G\L	.	.	.	.	.	.	.	.	.	.	.	.	.
16F\JJ	.	.	.	.	.	.	.	.	.	.	.	.	.
16E-\LL	.	4r	4r	4r	.	4r	.	4r	.	4r	.	4r	4r
16F\	.	.	.	.	.	.	.	.	.	.	.	.	.
16E-\	.	.	.	.	.	.	.	.	.	.	.	.	.
16D\JJ	.	.	.	.	.	.	.	.	.	.	.	.	.
4C/	.	2rg	2r	2rC	.	2rG	.	2r	.	16gg\LL	glo-	2rg	2r
.	.	.	.	.	.	.	.	.	.	16ff\	.	.	.
.	.	.	.	.	.	.	.	.	.	16gg\	.	.	.
.	.	.	.	.	.	.	.	.	.	16aa-X\JJ	.	.	.
8r	.	.	.	.	.	.	.	.	.	16gg\LL	.	.	.
.	.	.	.	.	.	.	.	.	.	16aa-X\	.	.	.
8Bn\	6	.	.	.	.	.	.	.	.	16gg\	.	.	.
.	.	.	.	.	.	.	.	.	.	16ff\JJ	.	.	.
=31	=31	=31	=31	=31	=31	=31	=31	=31	=31	=31	=31	=31	=31
16c\LL	.	4ee-\	4gg\	16c\LL	glo-	16c\LL	glo-	8.g\	glo-	8.ee-\	.	4ee-\	4gg\
16Bn\	.	.	.	16B-\	.	16d\	.	.	.	.	.	.	.
16c\	.	.	.	16c\	.	16e-\	.	.	.	.	.	.	.
16d-X\JJ	.	.	.	16d\JJ	.	16c\JJ	.	16g\	-ria	16dd\	-ri-	.	.
16c\LL	.	8r	8r	16c\LL	.	16c\LL	.	4g\	.	4cc\	-a	8r	8r
16d-X\	.	.	.	16d\	.	16d\	.	.	.	.	.	.	.
16c\	.	8ee-\	8gg\	16c\	.	16c\	.	.	.	.	.	8ee-\	8gg\
16B\JJ	.	.	.	16B-\JJ	.	16B-\JJ	.	.	.	.	.	.	.
!	!	!	!LO:TX:a:t=P:problem=♭ above	!	!	!	!	!	!	!LO:LB:g=original	!	!	!
*	*	*	*	*	*	*	*	*	*ij	*	*ij	*	*
16A-X\LL	.	4cc\	4aa-X\	8.A-X\	.	8.c\	.	8.a-X\	glo-	16ff\LL	glo-	4a-X/	4cc/
16B\	.	.	.	.	.	.	.	.	.	16ee-\	.	.	.
16A-\	.	.	.	.	.	.	.	.	.	16ff\	.	.	.
16G\JJ	.	.	.	16G\	-ri-	16c\	-ri-	16a-\	-ri-	16gg\JJ	.	.	.
16F\LL	.	8r	8r	4F\	-a	4c\	-a	4a-\	-a	16ff\LL	.	8r	8r
*	*	*	*	*	*	*	*	*	*Xij	*	*	*	*
16G\	.	.	.	.	.	.	.	.	.	16gg\	.	.	.
!	!	!	!LO:TX:a:t=P:problem=♭ above	!	!	!	!	!	!	!	!	!	!
16A-X\	.	8cc\	8aa-X\	.	.	.	.	.	.	16ff\	.	8a-/	8cc\
16F\JJ	.	.	.	.	.	.	.	.	.	16ee-\JJ	.	.	.
=32	=32	=32	=32	=32	=32	=32	=32	=32	=32	=32	=32	=32	=32
!	!	!LO:TX:a:t=P:problem=♮ above	!	!	!	!LO:TX:a:t=P:problem=♮ above	!	!	!	!	!	!	!
*	*	*	*	*	*	*	*ij	*	*	*	*	*	*
8G\L	.	4bn\	4dd\	8G\L	glo-	8.Bn\	glo-	2gT\	glo-	8.dd\	.	4bn/	4dd\
8An\	.	.	.	8An\	.	.	.	.	.	.	.	.	.
.	.	.	.	.	.	16B\	-ri-	.	.	16dd\	-ri-	.	.
8Bn\	6	8r	8r	8Bn\	.	8B\	-a	.	.	4dd\	-a	8r	8r
*	*	*	*	*	*	*	*	*	*	*	*Xij	*	*
8G\J	.	8b\	8dd\	8G\J	.	8r	.	.	.	.	.	8b\	8dd\
!	!	!	!	!	!	!LO:LB:g=original	!	!	!	!	!	!	!
4c\	.	4cc\	8ee-\L	8.c\	.	8.c\	glo-	8.g\	.	8.ee-\	glo-	8cc\L	8.ee-\L
.	.	.	8gg\J	.	.	.	.	.	.	.	.	8cc\J	.
.	.	.	.	16c\	-ri-	16c\	-ri-	16g\	-ri-	16ee-\	-ri-	.	16ee-\Jk
!	!	!	!LO:TX:a:t=P:problem=♭ above	!	!	!	!	!	!	!	!	!	!
4F\	.	4cc\	4aa-X\	4F\	-a	4f\	-a	4a-X\	-a	4cc\	-a	4cc\	4ff\
*	*	*	*	*	*	*	*Xij	*	*	*	*	*	*
!	!	!	!	!	!	!	!	!LO:LB:g=original	!	!	!	!	!
=33	=33	=33	=33	=33	=33	=33	=33	=33	=33	=33	=33	=33	=33
2G\	.	2ccn\	2gg\	2G\	tu-	2B-\	tu-	2g\	tu-	2dd\	tu-	2g/	2dd\
2C/	.	2cc\	2gg\	2C/	-a	2c\	-a	2g\	-a	2cc\	-a	2en/	2cc\
==	==	==	==	==	==	==	==	==	==	==	==	==	==
*-	*-	*-	*-	*-	*-	*-	*-	*-	*-	*-	*-	*-	*-
!!!system-decoration: [g1][g2][g3]s9
!!!RDF**kern: < = below
!!!ENC: Marta Lawrence
!!!END: 2020-12-03
!!!ENC: Andrzej Gręziak
!!!END: 2020-04-30
